X: 2
T: Mason's Apron
N: RJ	R-7	A	reel
M: C|
R: reel
K: A
ed | "A"c2A2 ABAF | EFAB dcBA |\
[1,3 "Bm"d2B2 BcBA | Bcde gfed :|\
[2,4 "D"Bcde "Bm"fefa | "E"edcB "A"A2 :|
|: ed | "A"cAeA fAeA | cAeA fedc |\
[1,3 "Bm"dBfB gBfB | dBfB "E"gfed :|\
[2,4 "D"Bcde "Bm"fefa | "E"edcB "A"A2 :|
% text 05/28/99


